iu/ts3index.svg

<svg xmlns="http://www.w3.org/2000/svg" viewBox="20.669 21.06 3620.691 4624.55" height="1em" width="1em">
  <path d="M1340.43 280.53c163.54-86.47 327-173.1 490.59-259.47 595.6 314.97 1191.1 630.13 1786.67 945.17 7.79 4.33 15.94 8.06 23.57 12.71.02 113.69 0 227.39.01 341.08-.07 32.5.12 65-.1 97.5-67.43-35.32-134.61-71.17-201.95-106.68-273.17-144.54-546.36-289.05-819.53-433.58-262.92-139.04-525.76-278.23-788.71-417.2-544.14 287.79-1088.23 575.69-1632.33 863.55-59.3 31.24-118.42 62.85-177.81 93.9-.21-146.2-.05-292.41-.08-438.62 27.94-15.25 56.25-29.82 84.33-44.82 411.78-217.84 823.56-435.69 1235.34-653.54Z" style="fill:#010d1c;fill-opacity:.2"/>
  <path d="M224.05 1440.07c61.67-32.66 123.13-65.72 184.88-98.23.11 614.4 0 1228.79.04 1843.19-.04 42.64.06 85.27-.04 127.92-127.35-67.91-254.59-136.06-381.88-204.09-2.32-1.66-6.95-2.15-6.32-5.88.04-312.32 0-624.64.02-936.97.09-106.99-.22-213.99 0-320.99-.01-98.02.02-196.05-.02-294.07-.03-1.43.03-3.08 1.66-3.5 67.2-35.84 134.47-71.54 201.66-107.38Zm3029.04-98.23c66.74 35.2 133.23 70.89 199.89 106.24 61.78 32.91 123.58 65.79 185.38 98.67 1.23.76 3.18 1.32 2.88 3.24.11 115-.1 230.02.12 345.02-.2 403.03-.03 806.05-.11 1209.07.06 2.26-2.8 2.66-4.27 3.74-128 68.31-255.87 136.87-383.9 205.12-.11-435.65-.01-871.3-.04-1306.94-.01-221.38-.05-442.78.05-664.16Z" style="fill:#010d1c;fill-opacity:.2"/>
  <path d="M20.83 3249.09c135.25 71.33 270.34 142.99 405.53 214.45 468.22 247.67 936.38 495.47 1404.65 743.06 547.58-289.57 1095.05-579.33 1642.61-868.95 55.84-29.52 111.62-59.18 167.54-88.56.25 113.32.03 226.64.11 339.96-.08 32.94.15 65.9-.12 98.85-121.13 64.38-242.51 128.31-363.71 192.56-482.18 255-964.25 510.21-1446.45 765.15-546.71-289.11-1093.32-578.41-1640.01-867.57-56.69-30.12-113.57-59.9-170.18-90.18-.13-112.27-.01-224.54-.05-336.8.06-33.99-.12-67.99.08-101.97Z" style="fill:#010d1c;fill-opacity:.2"/>
  <path d="M548.49 1282.51c428.28-232.89 856.56-465.8 1284.83-698.72 428.31 232.86 856.55 465.87 1284.89 698.7-428.3 232.91-856.58 465.86-1284.89 698.74-428.28-232.91-856.55-465.83-1284.83-698.72Z" style="fill:#0072b8"/>
  <path d="M539.87 1403.24c428.12 233.87 856.3 467.64 1284.43 701.48 3.01 1.66 6.08 3.24 9.04 5.03-.16 138.04.01 276.08-.08 414.12-321.49-175.56-642.96-351.13-964.44-526.69-109.65-59.93-219.39-119.71-328.99-179.74.1-138.07.01-276.13.04-414.2Zm.01 517.64c431.15 235.4 862.26 470.87 1293.38 706.31.02 138.1.03 276.19 0 414.29-431.1-235.54-862.3-470.86-1293.39-706.41.01-138.06-.01-276.13.01-414.19Zm-.01 517.49c431.08 235.56 862.3 470.89 1293.4 706.42.01 138.08.02 276.16-.01 414.24-420.27-229.52-840.54-459.05-1260.82-688.55-10.86-6.07-21.94-11.75-32.67-18.02.23-138.03.03-276.06.1-414.09Zm.01 517.63c431.13 235.46 862.28 470.88 1293.4 706.36v414.3c-431.09-235.58-862.33-470.88-1293.42-706.44.02-138.08 0-276.15.02-414.22Z" style="fill:#7c99c0"/>
  <path d="M2676.29 1649.19c150.08-82.02 300.22-163.91 450.28-245.95-.02 138.11 0 276.22-.01 414.33-431.12 235.4-862.23 470.82-1293.3 706.3.09-138.04-.08-276.08.08-414.12l.01-.31c281.04-153.3 561.94-306.87 842.94-460.25Zm-843.03 978c431.09-235.47 862.2-470.9 1293.32-706.3-.05 138.09.01 276.18-.03 414.26-431.09 235.46-862.23 470.82-1293.29 706.33.03-138.1.02-276.19 0-414.29Zm.01 517.6c431.07-235.51 862.24-470.84 1293.31-706.35-.03 138.1-.01 276.2-.01 414.31-431.11 235.42-862.2 470.86-1293.31 706.28.03-138.08.02-276.16.01-414.24Zm.01 517.57c431.11-235.42 862.2-470.87 1293.32-706.29-.09 138.1 0 276.19-.05 414.29-431.09 235.44-862.21 470.81-1293.27 706.3v-414.3Z" style="fill:#094490"/>
</svg>

<svg xmlns="http://www.w3.org/2000/svg" viewBox="20.66939926147461 21.059999465942383 3620.690673828125 4624.5498046875" height="1em" width="1em">
  <path d="M1340.43,280.53C1503.97,194.06 1667.43,107.43 1831.02,21.06C2426.62,336.03 3022.12,651.19 3617.69,966.23C3625.48,970.56 3633.63,974.29 3641.26,978.94C3641.28,1092.63 3641.26,1206.33 3641.27,1320.02C3641.2,1352.52 3641.39,1385.02 3641.17,1417.52C3573.74,1382.2 3506.56,1346.35 3439.22,1310.84C3166.05,1166.3 2892.86,1021.79 2619.69,877.26C2356.77,738.22 2093.93,599.03 1830.98,460.06C1286.84,747.85 742.75,1035.75 198.65,1323.61C139.35,1354.85 80.23,1386.46 20.84,1417.51C20.63,1271.31 20.79,1125.1 20.76,978.89C48.7,963.64 77.01,949.07 105.09,934.07C516.87,716.23 928.65,498.38 1340.43,280.53Z" style="fill:rgb(1,13,28);fill-opacity:0.2"/>
  <path d="M224.05,1440.07C285.72,1407.41 347.18,1374.35 408.93,1341.84C409.04,1956.24 408.93,2570.63 408.97,3185.03C408.93,3227.67 409.03,3270.3 408.93,3312.95C281.58,3245.04 154.34,3176.89 27.05,3108.86C24.73,3107.2 20.1,3106.71 20.73,3102.98C20.77,2790.66 20.73,2478.34 20.75,2166.01C20.84,2059.02 20.53,1952.02 20.75,1845.02C20.74,1747 20.77,1648.97 20.73,1550.95C20.7,1549.52 20.76,1547.87 22.39,1547.45C89.59,1511.61 156.86,1475.91 224.05,1440.07Z" style="fill:rgb(1,13,28);fill-opacity:0.2"/>
  <path d="M3253.09,1341.84C3319.83,1377.04 3386.32,1412.73 3452.98,1448.08C3514.76,1480.99 3576.56,1513.87 3638.36,1546.75C3639.59,1547.51 3641.54,1548.07 3641.24,1549.99C3641.35,1664.99 3641.14,1780.01 3641.36,1895.01C3641.16,2298.04 3641.33,2701.06 3641.25,3104.08C3641.31,3106.34 3638.45,3106.74 3636.98,3107.82C3508.98,3176.13 3381.11,3244.69 3253.08,3312.94C3252.97,2877.29 3253.07,2441.64 3253.04,2006C3253.03,1784.62 3252.99,1563.22 3253.09,1341.84Z" style="fill:rgb(1,13,28);fill-opacity:0.2"/>
  <path d="M20.83,3249.09C156.08,3320.42 291.17,3392.08 426.36,3463.54C894.58,3711.21 1362.74,3959.01 1831.01,4206.6C2378.59,3917.03 2926.06,3627.27 3473.62,3337.65C3529.46,3308.13 3585.24,3278.47 3641.16,3249.09C3641.41,3362.41 3641.19,3475.73 3641.27,3589.05C3641.19,3621.99 3641.42,3654.95 3641.15,3687.9C3520.02,3752.28 3398.64,3816.21 3277.44,3880.46C2795.26,4135.46 2313.19,4390.67 1830.99,4645.61C1284.28,4356.5 737.67,4067.2 190.98,3778.04C134.29,3747.92 77.41,3718.14 20.8,3687.86C20.67,3575.59 20.79,3463.32 20.75,3351.06C20.81,3317.07 20.63,3283.07 20.83,3249.09Z" style="fill:rgb(1,13,28);fill-opacity:0.2"/>
  <path d="M548.49,1282.51C976.77,1049.62 1405.05,816.71 1833.32,583.79C2261.63,816.65 2689.87,1049.66 3118.21,1282.49C2689.91,1515.4 2261.63,1748.35 1833.32,1981.23C1405.04,1748.32 976.77,1515.4 548.49,1282.51Z" style="fill:rgb(0,114,184)"/>
  <path d="M539.87,1403.24C967.99,1637.11 1396.17,1870.88 1824.3,2104.72C1827.31,2106.38 1830.38,2107.96 1833.34,2109.75C1833.18,2247.79 1833.35,2385.83 1833.26,2523.87C1511.77,2348.31 1190.3,2172.74 868.82,1997.18C759.17,1937.25 649.43,1877.47 539.83,1817.44C539.93,1679.37 539.84,1541.31 539.87,1403.24Z" style="fill:rgb(124,153,192)"/>
  <path d="M539.88,1920.88C971.03,2156.28 1402.14,2391.75 1833.26,2627.19C1833.28,2765.29 1833.29,2903.38 1833.26,3041.48C1402.16,2805.94 970.96,2570.62 539.87,2335.07C539.88,2197.01 539.86,2058.94 539.88,1920.88Z" style="fill:rgb(124,153,192)"/>
  <path d="M539.87,2438.37C970.95,2673.93 1402.17,2909.26 1833.27,3144.79C1833.28,3282.87 1833.29,3420.95 1833.26,3559.03C1412.99,3329.51 992.72,3099.98 572.44,2870.48C561.58,2864.41 550.5,2858.73 539.77,2852.46C540,2714.43 539.8,2576.4 539.87,2438.37Z" style="fill:rgb(124,153,192)"/>
  <path d="M539.88,2956C971.01,3191.46 1402.16,3426.88 1833.28,3662.36L1833.28,4076.66C1402.19,3841.08 970.95,3605.78 539.86,3370.22C539.88,3232.14 539.86,3094.07 539.88,2956Z" style="fill:rgb(124,153,192)"/>
  <path d="M2676.29,1649.19C2826.37,1567.17 2976.51,1485.28 3126.57,1403.24C3126.55,1541.35 3126.57,1679.46 3126.56,1817.57C2695.44,2052.97 2264.33,2288.39 1833.26,2523.87C1833.35,2385.83 1833.18,2247.79 1833.34,2109.75L1833.35,2109.44C2114.39,1956.14 2395.29,1802.57 2676.29,1649.19Z" style="fill:rgb(9,68,144)"/>
  <path d="M1833.26,2627.19C2264.35,2391.72 2695.46,2156.29 3126.58,1920.89C3126.53,2058.98 3126.59,2197.07 3126.55,2335.15C2695.46,2570.61 2264.32,2805.97 1833.26,3041.48C1833.29,2903.38 1833.28,2765.29 1833.26,2627.19Z" style="fill:rgb(9,68,144)"/>
  <path d="M1833.27,3144.79C2264.34,2909.28 2695.51,2673.95 3126.58,2438.44C3126.55,2576.54 3126.57,2714.64 3126.57,2852.75C2695.46,3088.17 2264.37,3323.61 1833.26,3559.03C1833.29,3420.95 1833.28,3282.87 1833.27,3144.79Z" style="fill:rgb(9,68,144)"/>
  <path d="M1833.28,3662.36C2264.39,3426.94 2695.48,3191.49 3126.6,2956.07C3126.51,3094.17 3126.6,3232.26 3126.55,3370.36C2695.46,3605.8 2264.34,3841.17 1833.28,4076.66L1833.28,3662.36Z" style="fill:rgb(9,68,144)"/>
</svg>
